X: 946
T: Black Donald The Piper.
B:O'Neill's 946
N:"collected by F. O'Neill."
Z:Transcribed by Tom Keays (htkeays@mailbox.syr.edu)
Z:abc 1.6
M:6/8
R:Jig
L:1/8
K:G
dBB efg | dBB BAG | dBB efg | dBG (A2 {BA}G) |
dBB ecc | dBB {c}BAG | A2 B cde | dBG {B}A2 G :|
|| gdd gee | gdc BAG | gddgee | dBG (A2 {BA}G) |
gdd gee | gdc BAG | A2 B cde | dBG {B}A2 G :|


